view/frontend/web/svg/flags/cf.svg

<svg width="24" height="24" viewbox="0 0 20 15" viewBox="0 0 20 15" fill="none" xmlns="http://www.w3.org/2000/svg">
<g clip-path="url(#clip0_270_60986)">
<rect width="20" height="15" fill="white"/>
<path fill-rule="evenodd" clip-rule="evenodd" d="M0 0H20V3.75H0V0Z" fill="#3D58DB"/>
<path fill-rule="evenodd" clip-rule="evenodd" d="M0 3.75H20V7.5H0V3.75Z" fill="#F7FCFF"/>
<path fill-rule="evenodd" clip-rule="evenodd" d="M0 7.5H20V11.25H0V7.5Z" fill="#73BE4A"/>
<path fill-rule="evenodd" clip-rule="evenodd" d="M0 11.25H20V15H0V11.25Z" fill="#FFD018"/>
<path fill-rule="evenodd" clip-rule="evenodd" d="M2.83091 3.38504L1.31557 4.43611L1.79978 2.63588L0.687363 1.48589L2.19363 1.42371L2.83091 -0.356445L3.46818 1.42371H4.97189L3.86204 2.63588L4.41787 4.32985L2.83091 3.38504Z" fill="#FECA00"/>
<path fill-rule="evenodd" clip-rule="evenodd" d="M8 0H12V15H8V0Z" fill="#E11C1B"/>
</g>
<defs>
<clipPath id="clip0_270_60986">
<rect width="20" height="15" fill="white"/>
</clipPath>
</defs>
</svg>

<svg width="24" height="24" viewbox="0 0 20 15" fill="none" xmlns="http://www.w3.org/2000/svg">
  <mask id="a" maskUnits="userSpaceOnUse" x="0" y="0" width="20" height="15">
    <path fill="#fff" d="M0 0h20v15H0z"/>
  </mask>
  <g mask="url(#a)" fill-rule="evenodd" clip-rule="evenodd">
    <path d="M0 0h20v3.75H0V0z" fill="#3D58DB"/>
    <path d="M0 3.75h20V7.5H0V3.75z" fill="#F7FCFF"/>
    <path d="M0 7.5h20v3.75H0V7.5z" fill="#73BE4A"/>
    <path d="M0 11.25h20V15H0v-3.75z" fill="#FFD018"/>
    <path d="M2.83 3.385L1.317 4.436l.484-1.8-1.113-1.15 1.507-.062.637-1.78.637 1.78h1.504l-1.11 1.212.556 1.694-1.587-.945z" fill="#FECA00"/>
    <path d="M8 0h4v15H8V0z" fill="#E11C1B"/>
  </g>
</svg>
